X:110
T: Philippe's Banjo Reel
C: P. Varlet
Z: B.Black
R: reel
M: 4/4
L: 1/8
K: Dmix
e|(3f^ff ef dBAF|G2 cG ECCe|(3f^ff ef dBAF|GcAG FDDe |
(3f^ff ef dBAF|G2 cG ECCE|DEFG Addc|(3AcA AG ED D :|
E|(3F^FF dF AFdF|G2 cG ECCE|(3F^FF dF AFdF|GcAG FDDE |
(3F^FF dF AFdF|G2 cG ECCE|DEFG Addc|(3AcA AG ED D :|
